X:1
T: Alastair Ross Taylor
C:
R:Jig
Q:180
K:A
M:6/8
L:1/16
|:d2|e2^d2e2 c2B2A2|f4A2 f2g2a2|e2^d2e2 c2B2A2|B4A2 G2F2E2|
e2^d2e2 c2B2A2|f4A2 f2g2a2|b4a2 g2f2g2|a4A2 A4:|
|:E2|A,2C2E2 A2B2c2|B4E2 B2c2d2|c2B2A2 e2d2c2|
c2B2B2 B4c2|A,2C2E2 A2B2c2|B6 e4d2|c2B2A2 B2A2G2|A6 A4:|
